X:1
T:Title
%%score { ( 1 3 ) | ( 2 4 ) }
L:1/8
M:6/8
K:A
V:1 treble nm="Grand Piano"
V:3 treble 
V:2 bass 
V:4 bass 
V:1
 z3 z2[Q:1/4=100] [CE] | [Ec]2 [Ec] cB[EA] | B2 A G2 A | B2 B BcB |[M:5/8] A3 z2 |[M:1/8] [CE] | %6
[M:3/4] [Ec]2 [Ec]c B[EA] | B2 A G2 A | B2 E c2 B |[M:5/8] [CA]-[CA]- [CA]3 |[M:1/8] [CA] | %11
[M:3/4] B2 BG FE | [CA]2 [Ec] [CA]2 [CA] | B2 BG F[G,DE] |[M:5/8] A3 z2 |[M:1/8] E | %16
[M:3/4] [Ec]2 [Ec]c B[EA] | B2 A G2 A | B2 E c2 B |[M:13/8] [CA]-[CA]- [CA]3 z z z z z z z2 |] %20
V:2
 z3 z2 [A,,A,] | [A,,A,]2 [A,,A,] [A,,A,][B,,G,][C,A,] | [E,G,E]2 [E,CE] [E,B,E]2 [E,A,C] | %3
 [E,G,D]2 [E,G,D] [G,D][A,E][E,G,D] |[M:5/8] z z2 E2 |[M:1/8] [A,,A,] | %6
[M:3/4] [A,,A,]2 [A,,A,][A,,A,] [B,,G,][C,A,] | [E,G,E]2 [E,CE] [E,B,E]2 [E,A,C] | %8
 [E,G,D]2 [E,G,D] [E,A,E]2 [E,G,D] |[M:5/8] [A,,A,]-[A,,A,]- [A,,A,]3 |[M:1/8] [A,,A,] | %11
[M:3/4] [E,G,D]2 [E,G,D]B, A,[E,G,D] | [A,,A,]2 [A,,A,] [A,,A,]2 [A,,A,] | z2 z B, z2 | %14
[M:5/8] z z2 G,,2 |[M:1/8] [A,C] |[M:3/4] [A,,A,]2 [A,,A,][A,,A,] [B,,G,][C,A,] | %17
 [E,G,E]2 [E,CE] [E,B,E]2 [E,A,C] | [E,G,D]2 [E,G,D] [E,A,E]2 [E,G,D] | %19
[M:13/8] [A,,A,]-[A,,A,]- [A,,A,]3 z z z z z z z2 |] %20
V:3
 x6 | z3 .E3 | x6 | x6 |[M:5/8] [A,C]-[A,C]- [A,C]3 |[M:1/8] x |[M:3/4] z2 z .E3 | x6 | x6 | %9
[M:5/8] x5 |[M:1/8] x |[M:3/4] x6 | x6 | x6 |[M:5/8] [A,C]3- [A,CE]2 |[M:1/8] x |[M:3/4] z2 z .E3 | %17
 x6 | x6 |[M:13/8] x13 |] %20
V:4
 x6 | x6 | x6 | z3 .E,3 |[M:5/8] A,,-A,,- A,,3 |[M:1/8] x |[M:3/4] x6 | x6 | x6 |[M:5/8] x5 | %10
[M:1/8] x |[M:3/4] z2 z .[E,D]3 | x6 | [E,G,D]2 [E,G,D][E,D]- [E,A,D]E, |[M:5/8] A,,-A,,- A,,3- | %15
[M:1/8] A,, |[M:3/4] x6 | x6 | x6 |[M:13/8] x13 |] %20

